X: 1937
T: Arrane Ny Jinnyn
R: reel
M: 4/4
K: Bminor
F2|B2 Bc d2 dc|B2 BA F2 FF|B2 Bc d2 ee|f2 de f2 ff|
e2 ag f2 ec|dc Bc d2 cB|BF cd ec de|fe dc B2||

